svg/folder_eye_outline.svg

<svg xmlns="http://www.w3.org/2000/svg" viewBox="0 0 24 24"><path d="M9.3 20H4c-1.1 0-2-.9-2-2V6c0-1.1.9-2 2-2h6l2 2h8c1.1 0 2 .9 2 2v6.6c-.6-.4-1.3-.8-2-1.1V8H4v10h5.3c0 .1-.1.2-.1.3l-.4.7.3.7c.1.1.1.2.2.3M23 19c-.9 2.3-3.3 4-6 4s-5.1-1.7-6-4c.9-2.3 3.3-4 6-4s5.1 1.7 6 4m-3.5 0c0-1.4-1.1-2.5-2.5-2.5s-2.5 1.1-2.5 2.5 1.1 2.5 2.5 2.5 2.5-1.1 2.5-2.5M17 18c-.6 0-1 .4-1 1s.4 1 1 1 1-.4 1-1-.4-1-1-1"/></svg>

<svg xmlns="http://www.w3.org/2000/svg" id="mdi-folder-eye-outline" viewBox="0 0 24 24"><path d="M9.3 20H4C2.9 20 2 19.1 2 18V6C2 4.9 2.9 4 4 4H10L12 6H20C21.1 6 22 6.9 22 8V14.6C21.4 14.2 20.7 13.8 20 13.5V8H4V18H9.3C9.3 18.1 9.2 18.2 9.2 18.3L8.8 19L9.1 19.7C9.2 19.8 9.2 19.9 9.3 20M23 19C22.1 21.3 19.7 23 17 23S11.9 21.3 11 19C11.9 16.7 14.3 15 17 15S22.1 16.7 23 19M19.5 19C19.5 17.6 18.4 16.5 17 16.5S14.5 17.6 14.5 19 15.6 21.5 17 21.5 19.5 20.4 19.5 19M17 18C16.4 18 16 18.4 16 19S16.4 20 17 20 18 19.6 18 19 17.6 18 17 18" /></svg>
